1-js/11-async/02-promise-basics/promise-resolve-1.svg

<svg xmlns="http://www.w3.org/2000/svg" width="538" height="106" viewBox="0 0 538 106"><defs><style>@import url(https://fonts.googleapis.com/css?family=Open+Sans:bold,italic,bolditalic%7CPT+Mono);@font-face{font-family:&apos;PT Mono&apos;;font-weight:700;font-style:normal;src:local(&apos;PT MonoBold&apos;),url(/font/PTMonoBold.woff2) format(&apos;woff2&apos;),url(/font/PTMonoBold.woff) format(&apos;woff&apos;),url(/font/PTMonoBold.ttf) format(&apos;truetype&apos;)}</style></defs><g id="promise" fill="none" fill-rule="evenodd" stroke="none" stroke-width="1"><g id="promise-resolve-1.svg"><path id="Rectangle-1" fill="#FFF9EB" stroke="#E8C48E" stroke-width="2" d="M6 34v58h181V34H6z"/><text id="new-Promise(executor" fill="#707175" font-family="PTMono-Regular, PT Mono" font-size="14" font-weight="normal"><tspan x="8" y="22">new Promise(executor)</tspan></text><text id="state:-&quot;pending&quot;-res" fill="#8A704D" font-family="PTMono-Regular, PT Mono" font-size="14" font-weight="normal"><tspan x="19" y="54">state: &quot;pending&quot;</tspan> <tspan x="19" y="74">result: undefined</tspan></text><path id="Line-Copy" fill="#EE6B47" fill-rule="nonzero" d="M329 53l14 7-14 7v-6H196v-2h133v-6z"/><text id="resolve(&quot;done&quot;)" fill="#EE6B47" font-family="PTMono-Regular, PT Mono" font-size="14" font-weight="normal"><tspan x="200.5" y="49">resolve(&quot;done&quot;)</tspan></text><path id="Rectangle-1-Copy" fill="#FFF9EB" stroke="#7ED321" stroke-width="2" d="M353 35h181v57H353z"/><text id="state:-&quot;fulfilled&quot;-r" fill="#417505" font-family="PTMono-Regular, PT Mono" font-size="14" font-weight="normal"><tspan x="368" y="55">state: &quot;fulfilled&quot;</tspan> <tspan x="368" y="75">result: &quot;done&quot;</tspan></text></g></g></svg>

<?xml version="1.0" encoding="UTF-8"?>
<svg width="538px" height="106px" viewBox="0 0 538 106" version="1.1" xmlns="http://www.w3.org/2000/svg" xmlns:xlink="http://www.w3.org/1999/xlink">
    <!-- Generator: sketchtool 61.2 (101010) - https://sketch.com -->
    <title>promise-resolve-1.svg</title>
    <desc>Created with sketchtool.</desc>
    <g id="promise" stroke="none" stroke-width="1" fill="none" fill-rule="evenodd">
        <g id="promise-resolve-1.svg">
            <path d="M6,34 L6,92 L187,92 L187,34 L6,34 Z" id="Rectangle-1" stroke="#E8C48E" stroke-width="2" fill="#FFF9EB"></path>
            <text id="new-Promise(executor" font-family="PTMono-Regular, PT Mono" font-size="14" font-weight="normal" fill="#707175">
                <tspan x="8" y="22">new Promise(executor)</tspan>
            </text>
            <text id="state:-&quot;pending&quot;-res" font-family="PTMono-Regular, PT Mono" font-size="14" font-weight="normal" line-spacing="20" fill="#8A704D">
                <tspan x="19" y="54">state:   "pending"</tspan>
                <tspan x="19" y="74">result:  undefined</tspan>
            </text>
            <path id="Line-Copy" d="M329,53 L343,60 L329,67 L329,61 L196,61 L196,59 L329,59 L329,53 Z" fill="#EE6B47" fill-rule="nonzero"></path>
            <text id="resolve(&quot;done&quot;)" font-family="PTMono-Regular, PT Mono" font-size="14" font-weight="normal" fill="#EE6B47">
                <tspan x="200.5" y="49">resolve("done")</tspan>
            </text>
            <rect id="Rectangle-1-Copy" stroke="#7ED321" stroke-width="2" fill="#FFF9EB" x="353" y="35" width="181" height="57"></rect>
            <text id="state:-&quot;fulfilled&quot;-r" font-family="PTMono-Regular, PT Mono" font-size="14" font-weight="normal" line-spacing="20" fill="#417505">
                <tspan x="368" y="55">state:  "fulfilled"</tspan>
                <tspan x="368" y="75">result: "done"</tspan>
            </text>
        </g>
    </g>
</svg>
